X: 100203
U: Q=!diminuendo(!
U: q=!diminuendo)!
M: 3/4
L: 1/8
K: D
uD2 |\
(A2BA^GA) | (d4A2) | c4QB2- | qB2E2F2 |\
(A2BA^GA) | (d4c2) | (e4B2) | (g4f2) |\
e2d2B2 | (c4e2) | d6- | d2z2 :|
|: uA2 |\
(.f3.f)f2 | gafgef | "_>"d6 | "_>"A6 |\
(B4g2) | (A4f2) | e2d2B2 | A2F2A2 |\
(.f3.f)f2 | gafgef | "_>"d6 | "_>"A6 |\


